!!!OTL: The Day Is Past and Gone	
!! From: "Folk Songs of the Southern Appalachians;
!! As Sung by Jean Ritchie"  2nd Edition.
!! University of Kentucky Press, 1997.
**kern	**silbe
*clefG2	*
*k[]	*
*M3/4	*
{4a;	God
=1	=
(8f#	bless
8e)	.
4d	them
4g;	moon-
=2	=
(8e	-shin-
8d)	.
4c}	-ers,
{4d	I
=3	=
4e	wish
4g;	they
4e	was
=4	=
2.d}	mine,
=5	=
{2.a	Their
=6	=
(8f#	breath
8e)	.
4d	is
4g;	as
=7	=
(8e	sweet
8d)	.
4c	as
4d	the
=8	=
4e	dew
4g;	on
4e	the
=9	=
2d;'}	vine,
{4g	I'll
=10	=
4a	go
4dd;	up
(8ee	some
8dd)	.
=11	=
4a	hol-
4cc;}	-ler,
{(12cc	I'll
12dd;	.
12cc)	.
=12	=
4cc	build
(8e	me
8d)	.
4c	a
=13	=
qd	still
2g;}	.
{8g	and
8a;	I'll
=14	=
(8f#	still
8e)	.
4d	you
4g;	a
=15	=
(8e	gal-
8d)	.
4c	-lon
8d	for
8d	a
=16	=
4e	two
4g	dol-
4e	-lar
=17	=
2d;}	bill.
==	==
*-	*-
